X: 1
T:Stourton Wake
M:4/4
C:
S:Seabright
N:
A:Adderbury
O:English
R:Reel
%:
%:
%P:A.(AB)$^4$
P:A.(AB)4
K:EDor
I:speed 350
%:
D2 |:  E2 z4 D2 :|\
P:A
|: B3    c  d2  B2 | AGFE   F2  GF  |  E2  B2 BAGF    | E4    E4    :|\
P:B
   B3    c  d2  B2 | edcB   c2  A2  |  B3   c  d2  B2 | e4    B4    |\
   B3    c  d2  B2 | AGFE   F2  D2  |  E2  B2 BAGF    | E4    E4    ||
